svg/scan_qrcode.svg

<svg xmlns="http://www.w3.org/2000/svg" width="24" height="24" viewBox="0 0 24 24"><path d="M4 4h6v6H4V4m16 0v6h-6V4h6m-6 11h2v-2h-2v-2h2v2h2v-2h2v2h-2v2h2v3h-2v2h-2v-2h-3v2h-2v-4h3v-1m2 0v3h2v-3h-2M4 20v-6h6v6H4M6 6v2h2V6H6m10 0v2h2V6h-2M6 16v2h2v-2H6m-2-5h2v2H4v-2m5 0h4v4h-2v-2H9v-2m2-5h2v4h-2V6M2 2v4H0V2a2 2 0 0 1 2-2h4v2H2m20-2a2 2 0 0 1 2 2v4h-2V2h-4V0h4M2 18v4h4v2H2a2 2 0 0 1-2-2v-4h2m20 4v-4h2v4a2 2 0 0 1-2 2h-4v-2z"/></svg>

<svg xmlns="http://www.w3.org/2000/svg" width="24" height="24" viewBox="0 0 24 24">
  <path d="M4,4h6v6H4V4M20,4v6H14V4h6M14,15h2V13H14V11h2v2h2V11h2v2H18v2h2v3H18v2H16V18H13v2H11V16h3V15m2,0v3h2V15H16M4,20V14h6v6H4M6,6V8H8V6H6M16,6V8h2V6H16M6,16v2H8V16H6M4,11H6v2H4V11m5,0h4v4H11V13H9V11m2-5h2v4H11V6M2,2V6H0V2A2,2,0,0,1,2,0H6V2H2M22,0a2,2,0,0,1,2,2V6H22V2H18V0h4M2,18v4H6v2H2a2,2,0,0,1-2-2V18H2m20,4V18h2v4a2,2,0,0,1-2,2H18V22Z"/>
</svg>
